Newaita-dark/apps/16/haguichi.svg

<svg height="16" viewBox="0 0 16 16" width="16" xmlns="http://www.w3.org/2000/svg" xmlns:xlink="http://www.w3.org/1999/xlink"><linearGradient id="a" gradientUnits="userSpaceOnUse" x1="7.93826" x2="7.93826" y1="14.0169685" y2="14.67849050002"><stop offset="0" stop-opacity=".27451"/><stop offset="1" stop-opacity="0"/></linearGradient><linearGradient id="b"><stop offset="0" stop-opacity=".313726"/><stop offset=".222222" stop-opacity=".27451"/><stop offset="1" stop-opacity="0"/></linearGradient><radialGradient id="c" cx="450.908936" cy="189.579361" gradientTransform="matrix(.00000009 -.0390662 -.0703192 -.00000005 26.065324 31.797666)" gradientUnits="userSpaceOnUse" r="21.166656" xlink:href="#b"/><radialGradient id="d" cx="450.908936" cy="189.579361" gradientTransform="matrix(-.00000009 .0390662 .0703192 .00000005 -10.188807 -3.763739)" gradientUnits="userSpaceOnUse" r="21.166656" xlink:href="#b"/><radialGradient id="e" cx="450.908936" cy="189.579361" gradientTransform="matrix(-.00000009 -.0390662 .0703192 -.00000005 -10.188807 31.797666)" gradientUnits="userSpaceOnUse" r="21.166656" xlink:href="#b"/><radialGradient id="f" cx="450.908936" cy="189.579361" gradientTransform="matrix(.00000009 .0390662 -.0703192 .00000005 26.065323 -3.76374)" gradientUnits="userSpaceOnUse" r="21.166656" xlink:href="#b"/><linearGradient id="g" gradientUnits="userSpaceOnUse" x1="5.29217449998" x2="5.29217449998" y1="14.0169675" y2="1.44805300003"><stop offset="0" stop-color="#f44336"/><stop offset="1" stop-color="#ef5350"/></linearGradient><linearGradient id="h" gradientUnits="userSpaceOnUse" x1="7.938262" x2="7.938262" y1="14.0169665" y2="1.44805200003"><stop offset="0" stop-color="#bdbdbd"/><stop offset="1" stop-color="#e0e0e0"/></linearGradient><path d="m2.976562 13.96875h9.921876v.734375h-9.921876zm0 0" fill="url(#a)"/><path d="m12.898438 14.015625h1.324218v-.660156h-1.324218zm0 0" fill="url(#c)"/><path d="m2.976562 14.015625h-1.324218v.664063h1.324218zm0 0" fill="url(#d)"/><path d="m2.976562 14.015625h-1.324218v-.660156h1.324218zm0 0" fill="url(#e)"/><path d="m12.898438 14.015625h1.324218v.664063h-1.324218zm0 0" fill="url(#f)"/><path d="m2.316406 1.449219h11.246094c.363281 0 .660156.296875.660156.660156v11.246094c0 .367187-.296875.660156-.660156.660156h-11.246094c-.367187 0-.664062-.292969-.664062-.660156v-11.246094c0-.363281.296875-.660156.664062-.660156zm0 0" fill="url(#g)"/><path d="m2.316406 1.449219c-.367187 0-.664062.292969-.664062.660156v.082031c0-.367187.296875-.660156.664062-.660156h11.246094c.363281 0 .660156.292969.660156.660156v-.082031c0-.367187-.296875-.660156-.660156-.660156zm0 0" fill="#e6e6e6" fill-opacity=".392157"/><path d="m2.316406 14.015625c-.367187 0-.664062-.292969-.664062-.660156v-.082031c0 .367187.296875.660156.664062.660156h11.246094c.363281 0 .660156-.292969.660156-.660156v.082031c0 .367187-.296875.660156-.660156.660156zm0 0" fill-opacity=".196078"/><path d="m74.117922-168.629428h359.840637c11.62389 0 21.122983 9.499093 21.122983 21.122983v359.840637c0 11.748878-9.499093 21.122982-21.122983 21.122982h-359.840637c-11.748878 0-21.247971-9.374104-21.247971-21.122982v-359.840637c0-11.62389 9.499093-21.122983 21.247971-21.122983zm0 0" fill="none" stroke="#212121" stroke-linecap="round" stroke-width="3" transform="matrix(.031253 0 0 .031253 0 6.719392)"/><path d="m7.9375 3.433594c-.097656 0-.191406.042968-.253906.117187l-3.308594 3.96875c-.101562.125-.101562.300781 0 .425781l3.308594 3.96875c.0625.074219.15625.117188.253906.117188h1.984375c.28125 0 .433594-.324219.253906-.539062l-2.785156-3.34375-1.519531.988281 1.179687-1.398438-.003906-.003906 3.128906-3.757813c.179688-.21875.027344-.542968-.253906-.542968zm0 0" fill="url(#h)"/><path d="m7.9375 3.433594c-.097656 0-.191406.042968-.253906.117187l-3.308594 3.96875c-.0625.078125-.085938.179688-.070312.273438.011718-.050781.035156-.105469.070312-.148438l3.308594-3.96875c.0625-.074219.15625-.117187.253906-.117187h1.984375c.171875 0 .296875.121094.324219.269531.039062-.191406-.101563-.394531-.324219-.394531zm-.546875 4.714844-1.289063.839843-.230468.273438 1.519531-.992188 2.785156 3.34375c.039063.046875.0625.097657.070313.148438.019531-.089844 0-.1875-.070313-.269531zm0 0" fill="#fff"/><path d="m10.242188 3.890625c-.011719.042969-.035157.085937-.066407.121094l-3.128906 3.757812.003906.007813-1.179687 1.398437.324218-.210937.855469-1.015625-.003906-.003907 3.128906-3.757812c.074219-.089844.09375-.199219.066407-.296875zm-5.929688 3.96875c-.027344.101563-.007812.210937.0625.296875l3.308594 3.96875c.0625.074219.15625.121094.253906.121094h1.984375c.230469 0 .375-.222656.320313-.421875-.039063.136719-.15625.246093-.320313.246093h-1.984375c-.097656 0-.191406-.042968-.253906-.117187l-3.308594-3.96875c-.027344-.039063-.050781-.082031-.0625-.125zm0 0" fill-opacity=".235294"/><path d="m959.908384 415.235959c-11.809897 0-23.147397 5.196355-30.705731 14.171876l-400.119292 479.954192c-12.282292 15.116667-12.282292 36.374481 0 51.491149l400.119292 479.954191c7.558334 8.975522 18.895834 14.171876 30.705731 14.171876h239.977096c34.012502 0 52.43594-39.208856 30.705731-65.190628l-336.818247-404.370855-183.761989 119.516152 142.663549-169.117717-.472396-.472396 378.389083-454.444815c21.730209-26.454168 3.306771-65.663025-30.705731-65.663025zm0 0" fill="none" stroke="#212121" stroke-linecap="round" stroke-linejoin="round" stroke-width="11.338583" transform="scale(.00826902)"/></svg>

<?xml version="1.0" encoding="UTF-8"?>
<svg xmlns="http://www.w3.org/2000/svg" xmlns:xlink="http://www.w3.org/1999/xlink" width="16px" height="16px" viewBox="0 0 16 16" version="1.1">
<defs>
<linearGradient id="linear0" gradientUnits="userSpaceOnUse" x1="254" y1="233.5" x2="254" y2="254.666672" gradientTransform="matrix(0.031253,0,0,0.031253,-0.00000190753,6.719393)">
<stop offset="0" style="stop-color:rgb(0%,0%,0%);stop-opacity:0.27451;"/>
<stop offset="1" style="stop-color:rgb(0%,0%,0%);stop-opacity:0;"/>
</linearGradient>
<radialGradient id="radial0" gradientUnits="userSpaceOnUse" cx="450.908936" cy="189.579361" fx="450.908936" fy="189.579361" r="21.166656" gradientTransform="matrix(0.0000000870852,-0.0390662,-0.0703192,-0.0000000507693,26.065324,31.797666)">
<stop offset="0" style="stop-color:rgb(0%,0%,0%);stop-opacity:0.313726;"/>
<stop offset="0.222222" style="stop-color:rgb(0%,0%,0%);stop-opacity:0.27451;"/>
<stop offset="1" style="stop-color:rgb(0%,0%,0%);stop-opacity:0;"/>
</radialGradient>
<radialGradient id="radial1" gradientUnits="userSpaceOnUse" cx="450.908936" cy="189.579361" fx="450.908936" fy="189.579361" r="21.166656" gradientTransform="matrix(-0.0000000870852,0.0390662,0.0703192,0.0000000507693,-10.188807,-3.763739)">
<stop offset="0" style="stop-color:rgb(0%,0%,0%);stop-opacity:0.313726;"/>
<stop offset="0.222222" style="stop-color:rgb(0%,0%,0%);stop-opacity:0.27451;"/>
<stop offset="1" style="stop-color:rgb(0%,0%,0%);stop-opacity:0;"/>
</radialGradient>
<radialGradient id="radial2" gradientUnits="userSpaceOnUse" cx="450.908936" cy="189.579361" fx="450.908936" fy="189.579361" r="21.166656" gradientTransform="matrix(-0.0000000870852,-0.0390662,0.0703192,-0.0000000507693,-10.188807,31.797666)">
<stop offset="0" style="stop-color:rgb(0%,0%,0%);stop-opacity:0.313726;"/>
<stop offset="0.222222" style="stop-color:rgb(0%,0%,0%);stop-opacity:0.27451;"/>
<stop offset="1" style="stop-color:rgb(0%,0%,0%);stop-opacity:0;"/>
</radialGradient>
<radialGradient id="radial3" gradientUnits="userSpaceOnUse" cx="450.908936" cy="189.579361" fx="450.908936" fy="189.579361" r="21.166656" gradientTransform="matrix(0.0000000870852,0.0390662,-0.0703192,0.0000000507693,26.065323,-3.76374)">
<stop offset="0" style="stop-color:rgb(0%,0%,0%);stop-opacity:0.313726;"/>
<stop offset="0.222222" style="stop-color:rgb(0%,0%,0%);stop-opacity:0.27451;"/>
<stop offset="1" style="stop-color:rgb(0%,0%,0%);stop-opacity:0;"/>
</radialGradient>
<linearGradient id="linear1" gradientUnits="userSpaceOnUse" x1="169.333328" y1="233.5" x2="169.333328" y2="-168.666656" gradientTransform="matrix(0.031253,0,0,0.031253,0,6.719392)">
<stop offset="0" style="stop-color:rgb(95.686275%,26.274511%,21.176471%);stop-opacity:1;"/>
<stop offset="1" style="stop-color:rgb(93.725491%,32.549021%,31.37255%);stop-opacity:1;"/>
</linearGradient>
<linearGradient id="linear2" gradientUnits="userSpaceOnUse" x1="254" y1="233.5" x2="254" y2="-168.666656" gradientTransform="matrix(0.031253,0,0,0.031253,0,6.719391)">
<stop offset="0" style="stop-color:rgb(74.117649%,74.117649%,74.117649%);stop-opacity:1;"/>
<stop offset="1" style="stop-color:rgb(87.843138%,87.843138%,87.843138%);stop-opacity:1;"/>
</linearGradient>
</defs>
<g id="surface1">
<path style=" stroke:none;fill-rule:nonzero;fill:url(#linear0);" d="M 2.976562 13.96875 L 12.898438 13.96875 L 12.898438 14.703125 L 2.976562 14.703125 Z M 2.976562 13.96875 "/>
<path style=" stroke:none;fill-rule:nonzero;fill:url(#radial0);" d="M 12.898438 14.015625 L 14.222656 14.015625 L 14.222656 13.355469 L 12.898438 13.355469 Z M 12.898438 14.015625 "/>
<path style=" stroke:none;fill-rule:nonzero;fill:url(#radial1);" d="M 2.976562 14.015625 L 1.652344 14.015625 L 1.652344 14.679688 L 2.976562 14.679688 Z M 2.976562 14.015625 "/>
<path style=" stroke:none;fill-rule:nonzero;fill:url(#radial2);" d="M 2.976562 14.015625 L 1.652344 14.015625 L 1.652344 13.355469 L 2.976562 13.355469 Z M 2.976562 14.015625 "/>
<path style=" stroke:none;fill-rule:nonzero;fill:url(#radial3);" d="M 12.898438 14.015625 L 14.222656 14.015625 L 14.222656 14.679688 L 12.898438 14.679688 Z M 12.898438 14.015625 "/>
<path style=" stroke:none;fill-rule:nonzero;fill:url(#linear1);" d="M 2.316406 1.449219 L 13.5625 1.449219 C 13.925781 1.449219 14.222656 1.746094 14.222656 2.109375 L 14.222656 13.355469 C 14.222656 13.722656 13.925781 14.015625 13.5625 14.015625 L 2.316406 14.015625 C 1.949219 14.015625 1.652344 13.722656 1.652344 13.355469 L 1.652344 2.109375 C 1.652344 1.746094 1.949219 1.449219 2.316406 1.449219 Z M 2.316406 1.449219 "/>
<path style=" stroke:none;fill-rule:nonzero;fill:rgb(90.196079%,90.196079%,90.196079%);fill-opacity:0.392157;" d="M 2.316406 1.449219 C 1.949219 1.449219 1.652344 1.742188 1.652344 2.109375 L 1.652344 2.191406 C 1.652344 1.824219 1.949219 1.53125 2.316406 1.53125 L 13.5625 1.53125 C 13.925781 1.53125 14.222656 1.824219 14.222656 2.191406 L 14.222656 2.109375 C 14.222656 1.742188 13.925781 1.449219 13.5625 1.449219 Z M 2.316406 1.449219 "/>
<path style=" stroke:none;fill-rule:nonzero;fill:rgb(0%,0%,0%);fill-opacity:0.196078;" d="M 2.316406 14.015625 C 1.949219 14.015625 1.652344 13.722656 1.652344 13.355469 L 1.652344 13.273438 C 1.652344 13.640625 1.949219 13.933594 2.316406 13.933594 L 13.5625 13.933594 C 13.925781 13.933594 14.222656 13.640625 14.222656 13.273438 L 14.222656 13.355469 C 14.222656 13.722656 13.925781 14.015625 13.5625 14.015625 Z M 2.316406 14.015625 "/>
<path style="fill:none;stroke-width:3;stroke-linecap:round;stroke-linejoin:miter;stroke:rgb(12.941177%,12.941177%,12.941177%);stroke-opacity:1;stroke-miterlimit:4;" d="M 74.117922 -168.629428 L 433.958559 -168.629428 C 445.582449 -168.629428 455.081542 -159.130335 455.081542 -147.506445 L 455.081542 212.334192 C 455.081542 224.08307 445.582449 233.457174 433.958559 233.457174 L 74.117922 233.457174 C 62.369044 233.457174 52.869951 224.08307 52.869951 212.334192 L 52.869951 -147.506445 C 52.869951 -159.130335 62.369044 -168.629428 74.117922 -168.629428 Z M 74.117922 -168.629428 " transform="matrix(0.031253,0,0,0.031253,0,6.719392)"/>
<path style=" stroke:none;fill-rule:nonzero;fill:url(#linear2);" d="M 7.9375 3.433594 C 7.839844 3.433594 7.746094 3.476562 7.683594 3.550781 L 4.375 7.519531 C 4.273438 7.644531 4.273438 7.820312 4.375 7.945312 L 7.683594 11.914062 C 7.746094 11.988281 7.839844 12.03125 7.9375 12.03125 L 9.921875 12.03125 C 10.203125 12.03125 10.355469 11.707031 10.175781 11.492188 L 7.390625 8.148438 L 5.871094 9.136719 L 7.050781 7.738281 L 7.046875 7.734375 L 10.175781 3.976562 C 10.355469 3.757812 10.203125 3.433594 9.921875 3.433594 Z M 7.9375 3.433594 "/>
<path style=" stroke:none;fill-rule:nonzero;fill:rgb(100%,100%,100%);fill-opacity:1;" d="M 7.9375 3.433594 C 7.839844 3.433594 7.746094 3.476562 7.683594 3.550781 L 4.375 7.519531 C 4.3125 7.597656 4.289062 7.699219 4.304688 7.792969 C 4.316406 7.742188 4.339844 7.6875 4.375 7.644531 L 7.683594 3.675781 C 7.746094 3.601562 7.839844 3.558594 7.9375 3.558594 L 9.921875 3.558594 C 10.09375 3.558594 10.21875 3.679688 10.246094 3.828125 C 10.285156 3.636719 10.144531 3.433594 9.921875 3.433594 Z M 7.390625 8.148438 L 6.101562 8.988281 L 5.871094 9.261719 L 7.390625 8.269531 L 10.175781 11.613281 C 10.214844 11.660156 10.238281 11.710938 10.246094 11.761719 C 10.265625 11.671875 10.246094 11.574219 10.175781 11.492188 Z M 7.390625 8.148438 "/>
<path style=" stroke:none;fill-rule:nonzero;fill:rgb(0%,0%,0%);fill-opacity:0.235294;" d="M 10.242188 3.890625 C 10.230469 3.933594 10.207031 3.976562 10.175781 4.011719 L 7.046875 7.769531 L 7.050781 7.777344 L 5.871094 9.175781 L 6.195312 8.964844 L 7.050781 7.949219 L 7.046875 7.945312 L 10.175781 4.1875 C 10.25 4.097656 10.269531 3.988281 10.242188 3.890625 Z M 4.3125 7.859375 C 4.285156 7.960938 4.304688 8.070312 4.375 8.15625 L 7.683594 12.125 C 7.746094 12.199219 7.839844 12.246094 7.9375 12.246094 L 9.921875 12.246094 C 10.152344 12.246094 10.296875 12.023438 10.242188 11.824219 C 10.203125 11.960938 10.085938 12.070312 9.921875 12.070312 L 7.9375 12.070312 C 7.839844 12.070312 7.746094 12.027344 7.683594 11.953125 L 4.375 7.984375 C 4.347656 7.945312 4.324219 7.902344 4.3125 7.859375 Z M 4.3125 7.859375 "/>
<path style="fill:none;stroke-width:11.338583;stroke-linecap:round;stroke-linejoin:round;stroke:rgb(12.941177%,12.941177%,12.941177%);stroke-opacity:1;stroke-miterlimit:4;" d="M 959.908384 415.235959 C 948.098487 415.235959 936.760987 420.432314 929.202653 429.407835 L 529.083361 909.362027 C 516.801069 924.478694 516.801069 945.736508 529.083361 960.853176 L 929.202653 1440.807367 C 936.760987 1449.782889 948.098487 1454.979243 959.908384 1454.979243 L 1199.88548 1454.979243 C 1233.897982 1454.979243 1252.32142 1415.770387 1230.591211 1389.788615 L 893.772964 985.41776 L 710.010975 1104.933912 L 852.674524 935.816195 L 852.202128 935.343799 L 1230.591211 480.898984 C 1252.32142 454.444816 1233.897982 415.235959 1199.88548 415.235959 Z M 959.908384 415.235959 " transform="matrix(0.00826902,0,0,0.00826902,0,0)"/>
</g>
</svg>
